src/assets/template/spritesvg/viber.svg

<svg width="40" height="40" viewBox="0 0 40 40" fill="none" xmlns="http://www.w3.org/2000/svg">
<rect x="1" y="1" width="38" height="38" stroke="#C4C4C4" stroke-width="2"/>
<path d="M33.7393 15.5883C33.7395 12.7708 32.6352 10.1148 30.63 8.10959C28.6247 6.10435 25.9688 5 23.151 5H16.8774C16.8771 5 16.8771 5 16.8771 5C14.0598 5 11.4037 6.10435 9.39865 8.10936C7.39342 10.1148 6.28906 12.7708 6.28906 15.5883V20.5198C6.28906 22.702 6.95465 24.8008 8.21396 26.59C9.32495 28.1683 10.8191 29.4013 12.5611 30.183V33.0156C12.5611 34.4802 13.3812 35 14.0834 35C14.5851 35 15.0868 34.7523 15.5753 34.2641L18.7311 31.1083L23.1512 31.1081C25.9688 31.1081 28.6247 30.0037 30.63 27.9987C32.6352 25.9935 33.7395 23.3373 33.7395 20.5198L33.7393 15.5883ZM23.1512 29.3503L18.3672 29.3505C18.1339 29.3505 17.9105 29.443 17.7457 29.6078L14.3324 33.0211C14.3281 33.0257 14.3235 33.03 14.3189 33.0344C14.3189 33.0282 14.3189 33.0218 14.3189 33.0156V29.5963C14.3189 29.2317 14.0939 28.9051 13.7534 28.7751C10.3403 27.4728 8.0471 24.1551 8.0471 20.5198V15.5883C8.0471 13.2402 8.96858 11.0255 10.6417 9.35219C12.3148 7.67929 14.5293 6.75781 16.8774 6.75781H23.151C25.4991 6.75781 27.7138 7.67929 29.3869 9.35242C31.0603 11.0258 31.9817 13.2404 31.9815 15.5883L31.9817 20.5198C31.9815 25.389 28.0202 29.3503 23.1512 29.3503Z" fill="#C4C4C4"/>
<path d="M22.3514 19.375C22.0083 19.0317 21.4519 19.0317 21.1086 19.375L20.3986 20.0848L17.6475 17.3339L18.3574 16.6241C18.5222 16.4593 18.6149 16.2357 18.6149 16.0025C18.6149 15.7695 18.5222 15.5459 18.3574 15.3811L15.029 12.0527C14.8642 11.8879 14.6409 11.7952 14.4076 11.7952C14.1746 11.7952 13.951 11.8879 13.7862 12.0527L11.4562 14.3827C10.1962 15.6427 10.1962 17.6932 11.4564 18.9539L18.7786 26.2765C19.3874 26.8851 20.1993 27.2202 21.0642 27.2202C21.9294 27.2202 22.7412 26.8851 23.35 26.2765L25.6801 23.9467C25.8449 23.7817 25.9376 23.5583 25.9376 23.3251C25.9376 23.0921 25.8449 22.8685 25.6801 22.7037L22.3514 19.375ZM22.107 25.0332C21.8303 25.31 21.4599 25.4624 21.0642 25.4624C20.6685 25.4624 20.2981 25.31 20.0214 25.0332L12.6995 17.7108C12.1245 17.1359 12.1243 16.2002 12.6993 15.6255L14.4076 13.9169L16.493 16.0025L15.783 16.7122C15.6182 16.877 15.5255 17.1006 15.5255 17.3336C15.5255 17.5669 15.6182 17.7903 15.783 17.9553L19.777 21.9493C20.1203 22.2924 20.6767 22.2926 21.02 21.9493L21.73 21.2395L23.8154 23.3249L22.107 25.0332Z" fill="#C4C4C4"/>
<path d="M20.2275 8.88794C19.7421 8.88794 19.3486 9.28139 19.3486 9.76685C19.3486 10.2521 19.7421 10.6458 20.2275 10.6458C22.239 10.6458 24.1302 11.429 25.5525 12.8515C26.975 14.2738 27.7582 16.1648 27.7582 18.1764C27.7582 18.6617 28.1517 19.0553 28.6371 19.0553C29.1223 19.0553 29.516 18.6619 29.516 18.1764C29.516 15.6953 28.5499 13.3628 26.7955 11.6084C25.0412 9.85405 22.7086 8.88794 20.2275 8.88794Z" fill="#C4C4C4"/>
<path d="M23.9926 18.1763C23.9926 18.6615 24.3863 19.0552 24.8716 19.0552C25.357 19.0552 25.7505 18.6615 25.7505 18.1763C25.7505 15.131 23.2728 12.6536 20.2275 12.6536C19.7421 12.6536 19.3486 13.047 19.3486 13.5325C19.3486 14.0179 19.7421 14.4114 20.2275 14.4114C22.3037 14.4114 23.9926 16.1003 23.9926 18.1763Z" fill="#C4C4C4"/>
</svg>

<svg width="40" height="40" fill="none" xmlns="http://www.w3.org/2000/svg"><path stroke="#C4C4C4" stroke-width="2" d="M1 1h38v38H1z"/><path d="M33.74 15.588c0-2.817-1.105-5.473-3.11-7.478A10.513 10.513 0 0023.151 5h-6.274A10.513 10.513 0 009.4 8.11a10.514 10.514 0 00-3.11 7.478v4.932c0 2.182.666 4.28 1.925 6.07a10.626 10.626 0 004.347 3.593v2.833c0 1.464.82 1.984 1.522 1.984.502 0 1.004-.248 1.492-.736l3.156-3.156h4.42c2.818 0 5.474-1.104 7.479-3.11a10.514 10.514 0 003.11-7.478v-4.932zM23.15 29.35h-4.784a.879.879 0 00-.621.258l-3.414 3.413-.013.013V29.596a.879.879 0 00-.566-.82c-3.413-1.303-5.706-4.62-5.706-8.256v-4.932c0-2.348.922-4.563 2.595-6.236a8.767 8.767 0 016.235-2.594h6.274c2.348 0 4.563.921 6.236 2.594a8.766 8.766 0 012.595 6.236v4.932c0 4.869-3.962 8.83-8.83 8.83z" fill="#C4C4C4"/><path d="M22.351 19.375a.879.879 0 00-1.242 0l-.71.71-2.752-2.751.71-.71a.88.88 0 000-1.243l-3.328-3.328a.879.879 0 00-1.243 0l-2.33 2.33a3.236 3.236 0 000 4.57l7.323 7.323a3.21 3.21 0 002.285.944 3.21 3.21 0 002.286-.944l2.33-2.33a.88.88 0 000-1.242l-3.329-3.329zm-.244 5.658c-.277.277-.647.43-1.043.43-.395 0-.766-.153-1.043-.43L12.7 17.711a1.476 1.476 0 010-2.085l1.709-1.71 2.085 2.087-.71.71a.879.879 0 000 1.242l3.994 3.994c.343.343.9.344 1.243 0l.71-.71 2.085 2.086-1.708 1.708zM20.227 8.888a.879.879 0 100 1.758 7.48 7.48 0 015.325 2.205 7.48 7.48 0 012.206 5.325.879.879 0 001.758 0 9.228 9.228 0 00-2.72-6.568 9.228 9.228 0 00-6.569-2.72z" fill="#C4C4C4"/><path d="M23.993 18.176a.88.88 0 001.758 0 5.53 5.53 0 00-5.524-5.522.879.879 0 100 1.757 3.77 3.77 0 013.766 3.765z" fill="#C4C4C4"/></svg>
